X:1193
T:Barrack Hill
T:Cat Jumped into the Mouse's Hole, The
R:slide
Z:id:hn-slide-62
M:6/8
L:1/8
W:The cat jumped into the mouse's hole,
W:The cat jumped into the mouse's hole,
W:The cat jumped into the mouse's hole,
W:And didn't come down till morning.
K:Ador
e2A ABd|e2d Bcd|e2A dBA|G2A Bcd|
e2A ABd|e2d B2d|edB G2B|1 A3 g2f:|2 A3 A3||
|:e2d efg|a2f g2e|d2B g2B|d2B dBd|
e2d efg|agf gfe|d2B G2B|1 A3 A3:|2 A3 g2f||


